X: 9
T: Major O'Flarty
%R: slip-jig
B: "Twenty Four Country Dances with Figures for the Year 1809", Button & Whitaker, p.5 #1
F: http://www.vwml.org/browse/browse-collections-dance-tune-books/browse-button1809
Z: 2014 John Chambers <jc:trillian.mit.edu>
M: 9/8
L: 1/8
K: C
% - - - - - - - - - - - - - - - - - - - - - - - - - - - - -
G |\
cBc edc Bcd | cBc efg d2G |\
cBc edc Bdg | eag ^fef g2 :|
|: (e/f/) |\
gag gfe f2d | efe edc d2G |\
cBc efg ABc | Gce {e}dcd c2 :|
% - - - - - - - - - - Dance description - - - - - - - - - -
%%begintext align
%% Hands across, & back again, down the
%% mid: up again, & right and left.
%%endtext

%%sep 1 1 500
%%sep 1 1 500
